public/assets/logos/scoutflix-white.svg

<svg fill="none" height="30" viewBox="0 0 30 30" width="30" xmlns="http://www.w3.org/2000/svg"><g fill="#fff"><path d="m21.1176 9.11765c-1.0282 0-1.9929.26353-2.8352.72941h-1.9318c0-.40235-.3271-.72941-.7294-.72941h-.9388c-.4 0-.7295.32706-.7295.72706 0 .00235.0024.00235.0024.00235h-2.2353c-.8424-.46588-1.80941-.72941-2.83765-.72941-3.24706 0-5.88235 2.63295-5.88235 5.88235s2.63529 5.8824 5.88235 5.8824c3.24705 0 5.88235-2.633 5.88235-5.8824 0-.7176-.1294-1.4047-.3647-2.04h1.2c-.2353.6353-.3647 1.3224-.3647 2.04 0 3.2494 2.6353 5.8824 5.8823 5.8824 3.2471 0 5.8824-2.633 5.8824-5.8824s-2.6329-5.88235-5.8824-5.88235zm-7.7741 6.12475c-.0706 1.2823-.6753 2.407-1.5859 3.1741-.2611.2211-.5482.4117-.8541.567-.0047-.0117-.007-.0259-.0117-.04-.0024.0165-.0024.033-.0047.0494-.673.3412-1.44004.5153-2.2471.4706-.04235-.0023-.08-.007-.12-.0094-.40706-.0329-.79765-.1176-1.16471-.2541-.08941-.0306-.17882-.0659-.26353-.1035-.00235-.0518-.00705-.1012-.01176-.1506-.00706.0447-.01412.0894-.02118.1341-.32706-.1459-.63529-.3294-.91294-.5459-1.12-.8706-1.80941-2.2565-1.72706-3.7788.09883-1.8 1.24706-3.2918 2.81883-3.9129.58117-.2306 1.22117-.3436 1.88706-.3059 1.64469.0894 3.03289 1.0564 3.73409 2.4235.3506.6824.5294 1.4612.4847 2.2824zm10.6494 3.1741c-.2611.2211-.5482.4117-.8541.567-.0047-.0117-.007-.0259-.0117-.04-.0024.0165-.0024.033-.0047.0494-.673.3412-1.44.5153-2.2471.4706-.0424-.0023-.08-.007-.12-.0094-.4071-.0329-.7977-.1176-1.1647-.2541-.0894-.0306-.1788-.0659-.2635-.1035-.0024-.0518-.0071-.1012-.0118-.1506-.0071.0447-.0141.0894-.0212.1341-.327-.1459-.6353-.3294-.9129-.5459-1.12-.8706-1.8094-2.2565-1.7271-3.7788.0353-.6471.2071-1.2541.4871-1.7953.7788-1.5224 2.4023-2.5247 4.2188-2.4235.4941.0259.9671.1341 1.4047.3082 1.7388.6871 2.9224 2.4282 2.8141 4.3977-.0706 1.2823-.6753 2.407-1.5859 3.1741z"/><path d="m11.7694 12.96c-.6353-.9341-1.7106-1.5435-2.9247-1.5294-.59764.007-1.15764.1623-1.6447.4329-1.08941.6-1.82118 1.7647-1.80706 3.0965.02353 1.9271 1.60235 3.4706 3.52941 3.4494 1.92705-.0212 3.47295-1.6023 3.45175-3.5294-.0094-.7129-.2306-1.3718-.6047-1.92zm-2.9294 4.3929c-1.29883-.0258-2.33412-1.0964-2.30824-2.3976.01883-.9812.63294-1.8094 1.49412-2.1459h.00235c.27765-.1106.58118-.167.89883-.1623.06117 0 .12235.0047.18117.0094-.02117.0541-.03294.1129-.03294.1741 0 .0447.00706.0894.01883.1294.05647.1906.23294.3318.44235.3318s.38588-.1389.44-.3318c.00706-.0118.00941-.0259.01176-.0376.02357.0117.04467.0235.06587.0376.7224.4118 1.2 1.1953 1.1812 2.0824-.0235 1.3011-1.0965 2.3341-2.3953 2.3105z"/><path d="m22.8 11.8635c-.5082-.2823-1.0965-.44-1.72-.4329-1.1859.0141-2.2282.6165-2.8471 1.5294-.3906.5694-.6117 1.2588-.6047 2 .0236 1.9271 1.6024 3.4706 3.5294 3.4494 1.9271-.0212 3.473-1.6023 3.4518-3.5294-.0165-1.3035-.7435-2.4306-1.8094-3.0165zm-1.7247 5.4894c-1.2988-.0258-2.3341-1.0964-2.3082-2.3976.0164-.8565.4894-1.5977 1.1811-1.9953.3577-.2071.7718-.32 1.2141-.3129.0612 0 .1224.0047.1812.0094-.0212.0541-.0329.1129-.0329.1741 0 .0447.007.0894.0188.1294.0565.1906.2329.3318.4424.3318.2235 0 .4094-.1577.4517-.3694.7577.4023 1.2659 1.2047 1.2471 2.12-.0235 1.3011-1.0965 2.3341-2.3953 2.3105z"/></g></svg>

<svg width="30" height="30" viewBox="0 0 30 30" fill="none" xmlns="http://www.w3.org/2000/svg">
<path d="M21.1176 9.11765C20.0894 9.11765 19.1247 9.38118 18.2824 9.84706H16.3506C16.3506 9.44471 16.0235 9.11765 15.6212 9.11765H14.6824C14.2824 9.11765 13.9529 9.44471 13.9529 9.84471C13.9529 9.84706 13.9553 9.84706 13.9553 9.84706H11.72C10.8776 9.38118 9.91059 9.11765 8.88235 9.11765C5.63529 9.11765 3 11.7506 3 15C3 18.2494 5.63529 20.8824 8.88235 20.8824C12.1294 20.8824 14.7647 18.2494 14.7647 15C14.7647 14.2824 14.6353 13.5953 14.4 12.96H15.6C15.3647 13.5953 15.2353 14.2824 15.2353 15C15.2353 18.2494 17.8706 20.8824 21.1176 20.8824C24.3647 20.8824 27 18.2494 27 15C27 11.7506 24.3671 9.11765 21.1176 9.11765ZM13.3435 15.2424C13.2729 16.5247 12.6682 17.6494 11.7576 18.4165C11.4965 18.6376 11.2094 18.8282 10.9035 18.9835C10.8988 18.9718 10.8965 18.9576 10.8918 18.9435C10.8894 18.96 10.8894 18.9765 10.8871 18.9929C10.2141 19.3341 9.44706 19.5082 8.64 19.4635C8.59765 19.4612 8.56 19.4565 8.52 19.4541C8.11294 19.4212 7.72235 19.3365 7.35529 19.2C7.26588 19.1694 7.17647 19.1341 7.09176 19.0965C7.08941 19.0447 7.08471 18.9953 7.08 18.9459C7.07294 18.9906 7.06588 19.0353 7.05882 19.08C6.73176 18.9341 6.42353 18.7506 6.14588 18.5341C5.02588 17.6635 4.33647 16.2776 4.41882 14.7553C4.51765 12.9553 5.66588 11.4635 7.23765 10.8424C7.81882 10.6118 8.45882 10.4988 9.12471 10.5365C10.7694 10.6259 12.1576 11.5929 12.8588 12.96C13.2094 13.6424 13.3882 14.4212 13.3435 15.2424ZM23.9929 18.4165C23.7318 18.6376 23.4447 18.8282 23.1388 18.9835C23.1341 18.9718 23.1318 18.9576 23.1271 18.9435C23.1247 18.96 23.1247 18.9765 23.1224 18.9929C22.4494 19.3341 21.6824 19.5082 20.8753 19.4635C20.8329 19.4612 20.7953 19.4565 20.7553 19.4541C20.3482 19.4212 19.9576 19.3365 19.5906 19.2C19.5012 19.1694 19.4118 19.1341 19.3271 19.0965C19.3247 19.0447 19.32 18.9953 19.3153 18.9459C19.3082 18.9906 19.3012 19.0353 19.2941 19.08C18.9671 18.9341 18.6588 18.7506 18.3812 18.5341C17.2612 17.6635 16.5718 16.2776 16.6541 14.7553C16.6894 14.1082 16.8612 13.5012 17.1412 12.96C17.92 11.4376 19.5435 10.4353 21.36 10.5365C21.8541 10.5624 22.3271 10.6706 22.7647 10.8447C24.5035 11.5318 25.6871 13.2729 25.5788 15.2424C25.5082 16.5247 24.9035 17.6494 23.9929 18.4165Z" fill="white"/>
<path d="M11.7694 12.96C11.1341 12.0259 10.0588 11.4165 8.8447 11.4306C8.24706 11.4376 7.68706 11.5929 7.2 11.8635C6.11059 12.4635 5.37882 13.6282 5.39294 14.96C5.41647 16.8871 6.99529 18.4306 8.92235 18.4094C10.8494 18.3882 12.3953 16.8071 12.3741 14.88C12.3647 14.1671 12.1435 13.5082 11.7694 12.96ZM8.84 17.3529C7.54117 17.3271 6.50588 16.2565 6.53176 14.9553C6.55059 13.9741 7.1647 13.1459 8.02588 12.8094H8.02823C8.30588 12.6988 8.60941 12.6424 8.92706 12.6471C8.98823 12.6471 9.04941 12.6518 9.10823 12.6565C9.08706 12.7106 9.07529 12.7694 9.07529 12.8306C9.07529 12.8753 9.08235 12.92 9.09412 12.96C9.15059 13.1506 9.32706 13.2918 9.53647 13.2918C9.74588 13.2918 9.92235 13.1529 9.97647 12.96C9.98353 12.9482 9.98588 12.9341 9.98823 12.9224C10.0118 12.9341 10.0329 12.9459 10.0541 12.96C10.7765 13.3718 11.2541 14.1553 11.2353 15.0424C11.2118 16.3435 10.1388 17.3765 8.84 17.3529Z" fill="white"/>
<path d="M22.8 11.8635C22.2918 11.5812 21.7035 11.4235 21.08 11.4306C19.8941 11.4447 18.8518 12.0471 18.2329 12.96C17.8423 13.5294 17.6212 14.2188 17.6282 14.96C17.6518 16.8871 19.2306 18.4306 21.1576 18.4094C23.0847 18.3882 24.6306 16.8071 24.6094 14.88C24.5929 13.5765 23.8659 12.4494 22.8 11.8635ZM21.0753 17.3529C19.7765 17.3271 18.7412 16.2565 18.7671 14.9553C18.7835 14.0988 19.2565 13.3576 19.9482 12.96C20.3059 12.7529 20.72 12.64 21.1623 12.6471C21.2235 12.6471 21.2847 12.6518 21.3435 12.6565C21.3223 12.7106 21.3106 12.7694 21.3106 12.8306C21.3106 12.8753 21.3176 12.92 21.3294 12.96C21.3859 13.1506 21.5623 13.2918 21.7718 13.2918C21.9953 13.2918 22.1812 13.1341 22.2235 12.9224C22.9812 13.3247 23.4894 14.1271 23.4706 15.0424C23.4471 16.3435 22.3741 17.3765 21.0753 17.3529Z" fill="white"/>
</svg>
